X: 1
T: The Piper's Despair
R: reel
M: 4/4
L: 1/8
K: Edor
|:EFGA BAFA|BdAd dBAD|1 D2FD ADFA|
BdAd dBAF:|2 DEFA dfag|gfed Bcde||
|:e2ge begf|efga bfaf|1 de~f2 af~f2|
df~f2 fedf:|2 ~d3e fggf|gfed Bcde||


Tune 336	Setting 13121

